src/Assets/icon-mail.svg

<svg xmlns="http://www.w3.org/2000/svg" width="24" height="24" viewBox="0 0 24 24"><path d="M12 12.713l-11.985-9.713h23.971l-11.986 9.713zm-5.425-1.822l-6.575-5.329v12.501l6.575-7.172zm10.85 0l6.575 7.172v-12.501l-6.575 5.329zm-1.557 1.261l-3.868 3.135-3.868-3.135-8.11 8.848h23.956l-8.11-8.848z"/></svg>

<svg width="24" height="24" viewBox="0 0 24 24" fill="none" xmlns="http://www.w3.org/2000/svg">
<path d="M12 12.713L0.015 3H23.986L12 12.713ZM6.575 10.891L0 5.562V18.063L6.575 10.891ZM17.425 10.891L24 18.063V5.562L17.425 10.891ZM15.868 12.152L12 15.287L8.132 12.152L0.022 21H23.978L15.868 12.152V12.152Z" fill="white"/>
</svg>
